resources/images/icons/notification.svg

<svg fill="none" height="24" viewBox="0 0 24 24" width="24" xmlns="http://www.w3.org/2000/svg"><path d="m10.1461 3.24812c.2972-.73196 1.0153-1.24812 1.8539-1.24812s1.5567.51616 1.8539 1.24812c2.9663.8126 5.1461 3.52767 5.1461 6.75188v4.6972l1.8321 2.7481c.2045.3069.2236.7014.0496 1.0266-.174.3251-.5129.5281-.8817.5281h-4.5354c-.2427 1.6961-1.7014 3-3.4646 3s-3.22194-1.3039-3.46455-3h-4.53545c-.36879 0-.70765-.203-.88167-.5281-.17402-.3252-.15495-.7197.04962-1.0266l1.83205-2.7481v-4.6972c0-3.22421 2.17983-5.93928 5.1461-6.75188zm.4393 15.75188c.2059.5826.7615 1 1.4146 1s1.2087-.4174 1.4146-1zm1.4146-14c-2.76142 0-5 2.23858-5 5v5c0 .1974-.05844.3904-.16795.5547l-.96353 1.4453h12.26298l-.9635-1.4453c-.1096-.1643-.168-.3573-.168-.5547v-5c0-2.76142-2.2386-5-5-5z" fill="#0d0d0d" xmlns="http://www.w3.org/2000/svg"/></svg>

<svg fill="none" viewBox="0 0 24 24" height="24" width="24" xmlns="http://www.w3.org/2000/svg">
<path xmlns="http://www.w3.org/2000/svg" d="M10.1461 3.24812C10.4433 2.51616 11.1614 2 12 2C12.8386 2 13.5567 2.51616 13.8539 3.24812C16.8202 4.06072 19 6.77579 19 10V14.6972L20.8321 17.4453C21.0366 17.7522 21.0557 18.1467 20.8817 18.4719C20.7077 18.797 20.3688 19 20 19H15.4646C15.2219 20.6961 13.7632 22 12 22C10.2368 22 8.77806 20.6961 8.53545 19H4C3.63121 19 3.29235 18.797 3.11833 18.4719C2.94431 18.1467 2.96338 17.7522 3.16795 17.4453L5 14.6972V10C5 6.77579 7.17983 4.06072 10.1461 3.24812ZM10.5854 19C10.7913 19.5826 11.3469 20 12 20C12.6531 20 13.2087 19.5826 13.4146 19H10.5854ZM12 5C9.23858 5 7 7.23858 7 10V15C7 15.1974 6.94156 15.3904 6.83205 15.5547L5.86852 17H18.1315L17.168 15.5547C17.0584 15.3904 17 15.1974 17 15V10C17 7.23858 14.7614 5 12 5Z" fill="#0D0D0D"></path>
</svg>
